X:1
T:Hand Organ -- Hornpipe
R:hornpipe
B:Cole's 1000 Fiddle Tunes
Z:Bob Puckette <bpuckette:msn.com> 2003-3-8
M:2/4
L:1/16
K:A
((3uefg)|aece Acea|fdBG .A2(Bc)|dfed dcBA|GBAF E2 ((3efg)|
aece Acea|fdBG .A2(Bc)|dfed cBAG|B2A2A2:|
ue2|ceAe ceAe|dfBf dfBf|ceAe ceAe|GB"4"eB GBeB|
ceAe ceAe|dfBf dfBf|eagf edcB|c2A2A2:|
